build/system/UndoOutline.svg

<svg xmlns="http://www.w3.org/2000/svg" fill="none" viewBox="0 0 24 24" focusable="false"><path d="M0 0H24V24H0z"/><path fill="#74767B" d="M5.18159 9.58723C4.92775 9.84107 4.92775 10.2526 5.18159 10.5065L8.84199 14.1669C9.09583 14.4207 9.50739 14.4207 9.76123 14.1669C10.0151 13.913 10.0151 13.5015 9.76123 13.2476L7.21045 10.6969L15.3463 10.6969C16.6442 10.6969 17.6963 11.749 17.6963 13.0469L17.6963 13.3076C17.6963 14.6055 16.6442 15.6576 15.3463 15.6576L12.6458 15.6576C12.2868 15.6576 11.9958 15.9486 11.9958 16.3076C11.9958 16.6666 12.2868 16.9576 12.6458 16.9576L15.3463 16.9576C17.3621 16.9576 18.9963 15.3234 18.9963 13.3076L18.9963 13.0469C18.9963 11.031 17.3621 9.39685 15.3463 9.39685L7.21045 9.39685L9.76123 6.84607C10.0151 6.59223 10.0151 6.18067 9.76123 5.92683C9.50739 5.67299 9.09583 5.67299 8.84199 5.92683L5.18159 9.58723Z"/></svg>

<svg xmlns="http://www.w3.org/2000/svg" fill="none" viewBox="0 0 24 24" focusable="false"><path fill="#74767B" d="M5.18 9.58a.64.64 0 0 0 0 .92l3.66 3.66c.25.26.66.26.92 0 .25-.25.25-.66 0-.92l-2.55-2.55h8.13c1.3 0 2.35 1.05 2.35 2.35v.26c0 1.3-1.05 2.35-2.35 2.35h-2.7c-.36 0-.65.29-.65.65s.29.65.65.65h2.7c2.02 0 3.65-1.63 3.65-3.65v-.26c0-2.01-1.63-3.65-3.65-3.65H7.21l2.55-2.55c.25-.25.25-.66 0-.92a.66.66 0 0 0-.92 0z"/></svg>
